X: 11
T: Mayor Harrison's Fedora
C: Edward Cronin
Z: ceili
S: https://thesession.org/tunes/367#setting49781
R: reel
M: 4/4
L: 1/8
K: Edor
EF|:"E"GBEG B/B/B AF|GFGA BdAG|"D"FADF ADFA|dcdB AFDF|
"E"GBEG B/B/B AF|GFGA BABc|"D"dedB AFDF|1 "B"GEED "E"E2 EF:|2 "B"GEED "E"E4||
|:"E"Beed e/e/e ef|g2 fg edBA|"G"GABc d/d/d dA|"D"dfaf "B"gfed|
"E"Beed e2 ef|g/g/g fg edBc|"D"dedB AFDF|1 "B"GEED "E"E4:|2 "B"GEED "E"E3 F||
|:"G"G/G/G GF GABc|"D"d/d/d AG FAD2|"E"Beed efge|fedf edBc|
"D"dedB AFDF|"E"GFEF GABc|"D"dedB AFDF|"B"GEED "E"E4:|

